wave/wave_logo_color.svg

<svg width="1271" height="500" viewBox="0 0 1271 500" fill="none" xmlns="http://www.w3.org/2000/svg">
<path d="M171.2 244.6C173.8 205.2 205.6 173.5 245.1 171.1V125C180 127.6 127.7 179.7 125 244.6H171.2Z" fill="#201637"/>
<path d="M171.2 375C173.8 335.6 205.6 303.9 245.1 301.5V255.4C180.1 258 127.8 310.1 125.1 375H171.2Z" fill="#201637"/>
<path d="M329.4 125C326.8 164.4 295 196.1 255.5 198.5V244.6C320.6 242 372.9 189.9 375.6 125H329.4Z" fill="#201637"/>
<path d="M329.4 255.4C326.8 294.8 295 326.5 255.5 328.9V375C320.6 372.4 372.9 320.3 375.6 255.4H329.4Z" fill="#201637"/>
<path d="M473.9 302.901L452.6 170.801H484L502.9 308.201H507.8L529.2 195.701C532 181.301 544.6 170.801 559.4 170.801C574.2 170.801 586.8 181.301 589.6 195.801L610.8 308.201H615.7L634.6 170.801H666L644.7 302.901C642.3 318.101 629.1 329.201 613.7 329.201C598.6 329.201 585.7 318.501 582.9 303.701L561.8 192.101H556.9L535.8 303.701C533 318.501 520.1 329.201 505 329.201C489.4 329.201 476.3 318.001 473.9 302.901Z" fill="#201637"/>
<path d="M878.8 305.401L835.8 170.801H869L908.9 306.101H913.8L953.7 170.801H986.9L943.9 305.401C939.4 319.501 926.2 329.101 911.3 329.101C896.5 329.201 883.3 319.601 878.8 305.401Z" fill="#201637"/>
<path d="M1146.1 246.801C1146.1 231.601 1143.1 218.301 1137 207.001C1130.9 195.701 1122.4 186.801 1111.6 180.401C1100.7 174.001 1088.1 170.801 1073.7 170.801C1059.3 170.801 1045.9 174.001 1034.7 180.501C1029.1 183.701 1024.1 187.601 1019.7 192.101C1019.2 192.701 1018.6 193.201 1018.1 193.801C1016.5 195.601 1015 197.401 1013.6 199.301C1011.7 201.901 1010 204.601 1008.4 207.501C1002 219.001 998.8 232.601 998.8 248.201V251.801C998.8 267.401 1002 281.001 1008.4 292.501C1014.8 304.001 1023.7 313.001 1035.1 319.401C1046.5 325.801 1059.8 329.001 1075 329.001C1088.4 329.001 1099.6 326.901 1108.5 322.601C1117.4 318.301 1124.5 313.101 1129.8 306.801C1131.3 305.001 1132.6 303.301 1133.9 301.601C1137.3 297.201 1140.1 292.901 1142.2 288.801L1116 275.401C1112.7 282.301 1108.1 288.401 1102.1 293.601C1096.1 298.901 1087.2 301.501 1075.4 301.501C1062.8 301.501 1052.3 297.601 1043.9 289.801C1043.4 289.301 1042.9 288.801 1042.4 288.301C1041.9 287.801 1041.4 287.301 1041 286.801C1039.9 285.501 1038.8 284.201 1037.9 282.701C1033.8 276.601 1031.5 269.301 1030.9 260.801C1030.8 260.001 1030.8 259.201 1030.8 258.401H1146.3L1146.1 246.801ZM1051.6 234.701L1035.6 250.701H1030.3C1030.2 246.101 1030.3 240.201 1030.9 234.701C1031.2 232.601 1031.6 230.601 1032.1 228.701C1032.6 226.801 1033.2 224.901 1033.9 223.201C1036.3 217.301 1039.8 212.401 1044.4 208.301C1051.8 201.801 1061.4 198.601 1073.2 198.601C1085 198.601 1094.5 201.801 1101.8 208.301C1109.1 214.801 1113.3 223.601 1114.3 234.701H1051.6Z" fill="#201637"/>
<path d="M817.6 227.5C817.6 209.2 812 195 800.8 185.1C789.6 175.1 774.2 170.1 754.6 170.1C741.8 170.1 730.9 172.1 722 176.2C713.1 180.3 706 185.7 700.6 192.4C695.2 199.1 691.3 206.4 688.8 214.4L718.2 223.9C720 215.8 723.8 209.1 729.5 204.1C735.2 199 743.5 196.5 754.3 196.5C765.1 196.5 773.5 199.2 778.8 204.6C784.1 210 786.8 217 786.8 225.5V251.5H781.7L765.4 235.2H740.9C724.4 235.2 710.7 239.1 699.7 247C688.8 254.8 683.3 266.4 683.3 281.7C683.3 291.9 685.8 300.5 690.8 307.6C695.8 314.7 702.5 320.1 711 323.8C719.5 327.5 729.1 329.3 739.9 329.3C750.7 329.3 758.7 327.8 765 324.9C771.3 322 776.1 318.5 779.4 314.5C782.7 310.5 785.1 306.9 786.7 303.7H791.6V329.3H817.6V227.5ZM786.7 262.6C786.7 275.2 782.8 285.1 774.9 292.4C767.1 299.6 756.9 303.2 744.5 303.2C735.3 303.2 728.1 301.2 722.8 297.1C717.5 293 714.8 287.5 714.8 280.6C714.8 273.7 717.4 268.4 722.4 264.9C727.5 261.3 734.2 259.6 742.6 259.6H786.7V262.6Z" fill="#201637"/>
</svg>

<?xml version="1.0" encoding="utf-8"?>
<!-- Generator: Adobe Illustrator 28.3.0, SVG Export Plug-In . SVG Version: 6.00 Build 0)  -->
<svg version="1.1" id="Layer_1" xmlns="http://www.w3.org/2000/svg" xmlns:xlink="http://www.w3.org/1999/xlink" x="0px" y="0px"
	 viewBox="0 0 1271 500" style="enable-background:new 0 0 1271 500;" xml:space="preserve">
<style type="text/css">
	.st0{fill:#3D95FD;}
	.st1{fill:#160F26;}
</style>
<path class="st0" d="M171.2,244.6c2.6-39.4,34.4-71.1,73.9-73.5V125c-65.1,2.6-117.4,54.7-120.1,119.6H171.2z"/>
<path class="st0" d="M171.2,375c2.6-39.4,34.4-71.1,73.9-73.5v-46.1C180.1,258,127.8,310.1,125.1,375H171.2z"/>
<path class="st0" d="M329.4,125c-2.6,39.4-34.4,71.1-73.9,73.5v46.1c65.1-2.6,117.4-54.7,120.1-119.6H329.4z"/>
<path class="st0" d="M329.4,255.4c-2.6,39.4-34.4,71.1-73.9,73.5V375c65.1-2.6,117.4-54.7,120.1-119.6H329.4z"/>
<path class="st1" d="M473.9,302.9l-21.3-132.1h31.4l18.9,137.4h4.9l21.4-112.5c2.8-14.4,15.4-24.9,30.2-24.9
	c14.8,0,27.4,10.5,30.2,25l21.2,112.4h4.9l18.9-137.4h31.4l-21.3,132.1c-2.4,15.2-15.6,26.3-31,26.3c-15.1,0-28-10.7-30.8-25.5
	l-21.1-111.6h-4.9l-21.1,111.6c-2.8,14.8-15.7,25.5-30.8,25.5C489.4,329.2,476.3,318,473.9,302.9L473.9,302.9z"/>
<path class="st1" d="M878.8,305.4l-43-134.6H869l39.9,135.3h4.9l39.9-135.3h33.2l-43,134.6c-4.5,14.1-17.7,23.7-32.6,23.7
	C896.5,329.2,883.3,319.6,878.8,305.4L878.8,305.4z"/>
<path class="st1" d="M1146.1,246.8c0-15.2-3-28.5-9.1-39.8c-6.1-11.3-14.6-20.2-25.4-26.6c-10.9-6.4-23.5-9.6-37.9-9.6
	c-14.4,0-27.8,3.2-39,9.7c-5.6,3.2-10.6,7.1-15,11.6c-0.5,0.6-1.1,1.1-1.6,1.7c-1.6,1.8-3.1,3.6-4.5,5.5c-1.9,2.6-3.6,5.3-5.2,8.2
	c-6.4,11.5-9.6,25.1-9.6,40.7v3.6c0,15.6,3.2,29.2,9.6,40.7c6.4,11.5,15.3,20.5,26.7,26.9c11.4,6.4,24.7,9.6,39.9,9.6
	c13.4,0,24.6-2.1,33.5-6.4c8.9-4.3,16-9.5,21.3-15.8c1.5-1.8,2.8-3.5,4.1-5.2c3.4-4.4,6.2-8.7,8.3-12.8l-26.2-13.4
	c-3.3,6.9-7.9,13-13.9,18.2c-6,5.3-14.9,7.9-26.7,7.9c-12.6,0-23.1-3.9-31.5-11.7c-0.5-0.5-1-1-1.5-1.5c-0.5-0.5-1-1-1.4-1.5
	c-1.1-1.3-2.2-2.6-3.1-4.1c-4.1-6.1-6.4-13.4-7-21.9c-0.1-0.8-0.1-1.6-0.1-2.4h115.5L1146.1,246.8L1146.1,246.8z M1051.6,234.7
	l-16,16h-5.3c-0.1-4.6,0-10.5,0.6-16c0.3-2.1,0.7-4.1,1.2-6c0.5-1.9,1.1-3.8,1.8-5.5c2.4-5.9,5.9-10.8,10.5-14.9
	c7.4-6.5,17-9.7,28.8-9.7s21.3,3.2,28.6,9.7c7.3,6.5,11.5,15.3,12.5,26.4H1051.6L1051.6,234.7z"/>
<path class="st1" d="M817.6,227.5c0-18.3-5.6-32.5-16.8-42.4c-11.2-10-26.6-15-46.2-15c-12.8,0-23.7,2-32.6,6.1
	c-8.9,4.1-16,9.5-21.4,16.2c-5.4,6.7-9.3,14-11.8,22l29.4,9.5c1.8-8.1,5.6-14.8,11.3-19.8c5.7-5.1,14-7.6,24.8-7.6
	s19.2,2.7,24.5,8.1c5.3,5.4,8,12.4,8,20.9v26h-5.1l-16.3-16.3h-24.5c-16.5,0-30.2,3.9-41.2,11.8c-10.9,7.8-16.4,19.4-16.4,34.7
	c0,10.2,2.5,18.8,7.5,25.9c5,7.1,11.7,12.5,20.2,16.2c8.5,3.7,18.1,5.5,28.9,5.5c10.8,0,18.8-1.5,25.1-4.4
	c6.3-2.9,11.1-6.4,14.4-10.4c3.3-4,5.7-7.6,7.3-10.8h4.9v25.6h26L817.6,227.5L817.6,227.5z M786.7,262.6c0,12.6-3.9,22.5-11.8,29.8
	c-7.8,7.2-18,10.8-30.4,10.8c-9.2,0-16.4-2-21.7-6.1c-5.3-4.1-8-9.6-8-16.5c0-6.9,2.6-12.2,7.6-15.7c5.1-3.6,11.8-5.3,20.2-5.3h44.1
	L786.7,262.6L786.7,262.6z"/>
</svg>
